X: 1829
T: How Is Your Mother?   #2
R: march
%S: s:2 b:11(5+6)
B: O'Neill's 1850 #1829
Z: Bob Safranek, rjs@gsp.org
N: Compacted via repeats and multiple endings [JC]
M: 6/8
L: 1/8
K: D
   A |: d2d f2f | a2a f2d | g2e f2d |[1,3 cde ABc :|[2,4 ABc d2 :|
|: A |: F2A E2A | F2A d2c |[1,3 B2d A2d | cde A2G :|[2,4 Bed cBc | d3  d2 :|
